src/assets/icons/truck.svg

<svg width="12" height="12" viewBox="0 0 12 12" fill="none" xmlns="http://www.w3.org/2000/svg">
<path d="M5.43053 11.3682C5.19649 11.3843 4.99483 11.3811 4.94886 11.3622C4.91124 11.3465 4.99222 11.2717 5.09305 11.1983C5.21007 11.1129 5.10349 11.0257 5.04707 10.9814C4.85795 10.8328 4.67824 10.6712 4.50898 10.4991C4.46718 10.4566 4.36897 10.3703 4.18142 10.3731C3.88364 10.3777 3.50697 10.3892 3.45943 10.3694C3.42495 10.3551 3.62347 10.2088 3.81729 10.0712C3.98551 9.95169 3.91759 9.798 3.86901 9.72738C3.7128 9.50077 3.57227 9.26215 3.44637 9.01292C3.42025 8.96123 3.34084 8.86292 3.1606 8.86015C2.87797 8.85646 2.55668 8.87354 2.5128 8.85554C2.47832 8.84077 2.72751 8.63308 2.9788 8.44892C3.03679 8.40646 3.12874 8.30769 3.07336 8.10738C2.99447 7.81892 2.90671 7.52769 2.8529 7.22492C2.83984 7.15108 2.76931 7.00246 2.58176 7.00662C2.32525 7.01354 2.06613 7.01631 2.02695 7.00015C1.99299 6.98585 2.2495 6.78277 2.53161 6.59723C2.60788 6.54785 2.72804 6.51138 2.7505 6.252C2.75677 6.17862 2.74528 6.10477 2.74528 6.03046C2.74528 5.78077 2.7552 5.53477 2.78759 5.29338C2.81789 5.06954 2.66535 5.02431 2.58124 5.028C2.32264 5.03954 2.06038 5.05108 2.02224 5.03492C1.98463 5.01923 2.35816 4.78154 2.71916 4.58538C2.79177 4.54662 2.91611 4.47138 2.98402 4.26923C3.07806 3.99 3.15799 3.71077 3.27554 3.44723C3.38159 3.20908 3.16478 3.16938 3.05507 3.17123C2.77662 3.17585 2.54989 3.18877 2.50549 3.17077C2.46369 3.15323 2.94119 2.91 3.38629 2.74662C3.48973 2.70831 3.67832 2.63446 3.85543 2.38431C3.98917 2.196 4.13649 2.01831 4.27493 1.83877C4.41128 1.66246 4.26083 1.63892 4.17045 1.63892C3.82774 1.63892 3.52943 1.66246 3.47771 1.64031C3.42965 1.62092 4.18769 1.36292 4.64324 1.26138C4.7425 1.23923 4.88094 1.20692 5.06327 1.07446C5.21843 0.961385 5.36523 0.84 5.5277 0.739385C5.67189 0.649846 5.55487 0.631385 5.48904 0.630462C5.11081 0.625846 4.76653 0.654923 4.71011 0.631385C4.65578 0.608769 5.67607 0.445846 6.07729 0.421385C6.42993 0.244154 7.03123 0.0992308 7.42044 0C7.31961 0 7.23446 0.000461539 7.20154 0.00276923H4.93736C4.80989 0.0170769 4.26501 -0.00369231 4.16627 0.00276923C3.90976 0.0272308 3.73266 0.0503077 3.4866 0.137538C3.32464 0.195231 3.27188 0.379385 3.38211 0.418615C3.50436 0.462 3.96984 0.604615 3.91289 0.63C3.86587 0.650769 3.25046 0.63 2.86439 0.606462C2.7108 0.596769 2.49765 0.584769 2.40779 0.642462C2.17897 0.789231 2.25002 0.757385 2.03687 0.947077C1.95224 1.02231 1.93082 1.18477 2.05307 1.23554C2.17061 1.28354 2.74058 1.62 2.6643 1.65369C2.599 1.68277 1.80439 1.73215 1.61005 1.716C1.4178 1.70031 1.31645 1.71 1.24122 1.80462C1.05472 2.03954 1.03486 2.12262 0.88075 2.39815C0.819626 2.50708 0.82485 2.70277 0.917842 2.74477C1.01083 2.78631 1.44967 2.97092 1.71715 3.168C1.41519 3.14631 0.83112 3.25477 0.700514 3.25477C0.569908 3.25477 0.465946 3.26077 0.419973 3.38262C0.302428 3.69185 0.281008 3.80908 0.205779 4.13538C0.176524 4.266 0.229811 4.39846 0.344221 4.45615C0.458632 4.51385 1.32429 5.03215 1.236 5.028C1.0892 5.02062 0.331161 5.17985 0.21675 5.18169C0.10234 5.18354 0.0276331 5.26246 0.015095 5.39538C-0.00841404 5.64415 0.00255682 5.64415 0.00255682 5.89846C0.00307924 5.98985 0.0046465 6.08123 0.00778104 6.17123C0.0124828 6.30369 0.146746 6.44769 0.272127 6.49985C0.443482 6.57185 1.32272 6.95354 1.24436 6.98862C1.17958 7.01723 0.384448 7.104 0.30295 7.10631C0.118012 7.11138 0.0955481 7.27477 0.116967 7.40815C0.171299 7.74277 0.175479 7.80508 0.273694 8.12492C0.302428 8.22092 0.398031 8.30769 0.496246 8.33677C0.594462 8.36585 1.83731 8.814 1.75842 8.84908C1.69312 8.87815 0.948142 9.00369 0.830597 9.00831C0.674393 9.01569 0.690588 9.21185 0.76216 9.35446C0.905826 9.64154 0.838433 9.55385 1.01136 9.80954C1.04688 9.86354 1.20674 9.94892 1.25637 9.95815C1.35459 9.97754 2.76826 10.3283 2.68938 10.3629C2.62408 10.392 1.86865 10.4243 1.72864 10.4312C1.58863 10.4382 1.60692 10.6232 1.68685 10.7077C1.89007 10.9214 1.84201 10.8854 2.06195 11.0543C2.18681 11.1503 2.4778 11.1425 2.49713 11.1554C2.78812 11.196 4.01215 11.3395 3.93797 11.3728C3.87267 11.4018 3.42129 11.4457 2.99082 11.4909C2.85446 11.4854 2.96417 11.6529 3.06187 11.6954C3.30531 11.8038 3.55712 11.8846 3.81154 11.9354C3.82147 11.9372 3.83035 11.9382 3.83923 11.9382C3.93013 11.9382 4.49957 11.9862 4.59988 11.9862C4.72892 11.9862 6.47642 11.9945 7.33163 11.9982C6.83324 11.8708 6.16819 11.6769 5.70741 11.4263C5.66876 11.4055 5.5695 11.358 5.43053 11.3682Z" fill="white"/>
<path d="M11.9812 5.44523C11.9718 5.30908 11.8924 5.21169 11.7801 5.22046C11.7775 5.22092 11.7749 5.226 11.7717 5.22646C11.7555 5.06031 11.7357 4.89554 11.7075 4.73354C11.7106 4.73308 11.7127 4.73354 11.7148 4.73262C11.813 4.69708 11.872 4.56092 11.8454 4.42892C11.7785 4.09846 11.6887 3.77215 11.58 3.46015C11.5382 3.33508 11.3146 3.28338 11.3146 3.28338C11.3146 3.28338 11.2091 3.05446 11.1427 2.91415C11.1448 2.91185 11.1479 2.91277 11.15 2.91092C11.2336 2.83292 11.255 2.67877 11.1965 2.56662C11.0503 2.28462 10.8836 2.01785 10.7034 1.77323C10.6318 1.67631 10.3622 1.68646 10.3601 1.69015C10.3356 1.65415 10.2504 1.55862 10.1517 1.45477C10.1543 1.45062 10.1574 1.45292 10.1595 1.44877C10.2196 1.33754 10.1997 1.18246 10.1172 1.10308C9.90667 0.902769 9.68359 0.726462 9.4532 0.578308C9.36021 0.519692 8.9569 0.571846 8.9569 0.571846L8.85398 0.525692C8.85555 0.522 8.85816 0.521077 8.85869 0.518308C8.8869 0.386769 8.82943 0.249692 8.73174 0.212308C8.48463 0.119538 8.23021 0.0544615 7.97318 0.0198462C7.89847 0.00692308 7.63151 0.000923077 7.42881 0C7.03438 0.12 6.65458 0.284769 6.29516 0.491538C6.64205 0.528 5.85789 1.01538 5.91797 0.729692C5.69124 0.885692 5.47547 1.05969 5.27173 1.25077C5.60399 1.27892 4.98596 1.97123 4.88461 1.65046C4.62393 1.94862 4.38988 2.27815 4.18666 2.63677C4.48862 2.55692 4.12449 3.43477 3.91134 3.18738C3.7426 3.56908 3.60834 3.97846 3.51221 4.41369C3.79327 4.32231 3.66058 5.12215 3.4072 5.00723C3.36332 5.33538 3.34033 5.67692 3.34033 6.02954C3.34033 6.10292 3.34138 6.17585 3.34347 6.24831C3.61669 6.14677 3.74939 6.87831 3.38578 6.88477C3.43437 7.32554 3.52005 7.74277 3.63811 8.13462C3.80424 7.99015 4.23524 8.62477 3.84865 8.72538C3.99336 9.07523 4.16628 9.402 4.36376 9.70431C4.46615 9.53123 4.98544 10.0971 4.68923 10.1538C4.91909 10.4418 5.17404 10.7022 5.44779 10.9348C5.49324 10.77 6.03447 11.1309 5.82236 11.2269C6.28993 11.5602 6.80243 11.8182 7.34261 11.9982C7.61584 11.9991 7.7966 12 7.7966 12C8.07192 11.9912 8.20513 11.964 8.31955 11.9349C8.41985 11.9091 8.61942 11.6345 8.61942 11.6345C8.61942 11.6345 8.98093 11.6192 9.05564 11.6192C9.0781 11.6192 9.10057 11.6137 9.12251 11.6026C9.36073 11.4794 9.59321 11.3275 9.81472 11.1503C9.90249 11.0806 9.9307 10.9283 9.87793 10.8111C9.87637 10.8083 9.87375 10.8083 9.87323 10.8055C9.97719 10.7137 9.99809 10.6911 10.0974 10.5877C10.0984 10.5905 10.2666 10.6062 10.3189 10.6062C10.3612 10.6062 10.4051 10.5863 10.439 10.5462C10.6339 10.3223 10.8157 10.0745 10.9787 9.80815C11.0429 9.70246 11.0325 9.54738 10.9536 9.46015C10.9505 9.45692 10.9468 9.45877 10.9442 9.456C11.0189 9.32215 11.0732 9.23262 11.1406 9.08954C11.1427 9.09185 11.2237 9.08308 11.255 9.08308C11.3193 9.08308 11.3804 9.03785 11.4154 8.958C11.5429 8.65985 11.6505 8.34461 11.7378 8.02108C11.7722 7.89231 11.7216 7.75062 11.6254 7.704C11.6239 7.70354 11.6223 7.70492 11.6207 7.70446C11.6578 7.54569 11.6876 7.38369 11.7142 7.21985C11.7169 7.22031 11.7174 7.224 11.7195 7.22446C11.7304 7.22677 11.7414 7.22769 11.7513 7.22769C11.8407 7.22769 11.9185 7.14231 11.9342 7.02231C11.9776 6.68492 12 6.33877 12 5.99354C11.9995 5.80892 11.9932 5.62569 11.9812 5.44523ZM7.82168 9.81369C6.39807 9.81369 5.24404 8.10646 5.24404 6.00138C5.24404 3.89538 6.39807 2.18862 7.82168 2.18862C9.2458 2.18862 10.3988 3.89538 10.3988 6.00138C10.3988 8.106 9.2458 9.81369 7.82168 9.81369Z" fill="white"/>
</svg>

<svg xmlns="http://www.w3.org/2000/svg" width="12" height="12" fill="#fff" xmlns:v="https://vecta.io/nano"><path d="M5.431 11.368c-.234.016-.436.013-.482-.006-.038-.016.043-.091.144-.164.117-.085.01-.173-.046-.217-.189-.149-.369-.31-.538-.482-.042-.043-.14-.129-.328-.126-.298.005-.674.016-.722-.004-.034-.014.164-.161.358-.298.168-.12.1-.273.052-.344-.156-.227-.297-.465-.423-.714-.026-.052-.106-.15-.286-.153-.283-.004-.604.013-.648-.005-.034-.015.215-.222.466-.407.058-.042.15-.141.095-.342l-.22-.882c-.013-.074-.084-.222-.271-.218-.257.007-.516.01-.555-.006-.034-.014.223-.217.505-.403.076-.049.196-.086.219-.345.006-.073-.005-.147-.005-.222 0-.25.01-.496.042-.737.03-.224-.122-.269-.206-.265l-.559.007c-.038-.016.336-.253.697-.45a.52.52 0 0 0 .265-.316l.292-.822c.106-.238-.111-.278-.22-.276-.278.005-.505.018-.55 0s.436-.261.881-.424c.103-.038.292-.112.469-.362l.42-.546c.136-.176-.014-.2-.104-.2l-.693.001c-.048-.019.71-.277 1.166-.379.099-.022.238-.054.42-.187l.464-.335c.144-.09.027-.108-.039-.109-.378-.005-.723.024-.779.001s.966-.186 1.367-.21C6.43.244 7.031.099 7.42 0l-.219.003H4.937c-.127.014-.672-.006-.771 0-.257.024-.434.048-.68.135-.162.058-.215.242-.104.281.122.043.588.186.531.211-.047.021-.662 0-1.048-.024-.154-.01-.367-.022-.457.036-.229.147-.158.115-.371.305-.085.075-.106.238.016.288s.688.384.611.418c-.065.029-.86.078-1.054.062s-.294-.006-.369.089c-.186.235-.206.318-.36.594-.061.109-.056.305.037.347s.532.226.799.423c-.302-.022-.886.087-1.017.087s-.235.006-.281.128c-.118.309-.139.426-.214.753-.029.131.024.263.138.321s.98.576.892.572c-.147-.007-.905.152-1.019.154s-.189.081-.202.214c-.024.249-.013.249-.013.503l.005.273c.005.132.139.276.264.329.171.072 1.051.454.972.489-.065.029-.86.115-.941.118-.185.005-.207.168-.186.302.054.335.059.397.157.717.029.096.124.183.223.212s1.341.477 1.262.512c-.065.029-.81.155-.928.159-.156.007-.14.204-.068.346.144.287.076.199.249.455a.61.61 0 0 0 .245.149c.098.019 1.512.37 1.433.405-.065.029-.821.061-.961.068s-.122.192-.042.277c.203.214.155.178.375.347.125.096.416.088.435.101l1.441.217c-.065.029-.517.073-.947.118-.136-.005-.027.162.071.204a3.56 3.56 0 0 0 .75.24c.01.002.019.003.028.003.091 0 .66.048.761.048l2.732.012c-.498-.127-1.163-.321-1.624-.572-.039-.021-.138-.068-.277-.058z"/><path d="M11.981 5.445c-.009-.136-.089-.234-.201-.225l-.073-.487c.106-.036.165-.173.138-.305a7.45 7.45 0 0 0-.265-.969c-.042-.125-.265-.177-.265-.177l-.172-.369a.3.3 0 0 0 .054-.348 5.99 5.99 0 0 0-.493-.793c-.072-.097-.341-.087-.343-.083a2.94 2.94 0 0 0-.208-.235c.068-.117.048-.272-.034-.352-.211-.2-.434-.377-.664-.525C9.36.52 8.957.572 8.957.572L8.854.526C8.887.387 8.829.25 8.732.212 8.485.12 8.23.054 7.973.02A5.76 5.76 0 0 0 7.429 0a5.46 5.46 0 0 0-1.134.492c.347.036-.437.524-.377.238a5.51 5.51 0 0 0-.646.521c.332.028-.286.72-.387.4a5.96 5.96 0 0 0-.698.986c.302-.08-.062.798-.275.551a6.49 6.49 0 0 0-.399 1.226c.281-.091.148.708-.105.594-.044.328-.067.67-.067 1.022l.003.219c.273-.102.406.63.042.636a6.98 6.98 0 0 0 .252 1.25c.166-.144.597.49.211.591.145.35.318.677.515.979.102-.173.622.393.325.449a5.65 5.65 0 0 0 .759.781c.045-.165.587.196.375.292.468.333.98.591 1.52.771l.454.002c.275-.009.409-.036.523-.065.1-.026.3-.3.3-.3l.436-.015c.022 0 .045-.005.067-.017.238-.123.471-.275.692-.452.088-.07.116-.222.063-.339l.219-.223c.001.003.169.018.221.018.042 0 .086-.02.12-.06.195-.224.377-.472.54-.738a.31.31 0 0 0-.025-.348l.187-.371c.002.002.083-.006.114-.006.064 0 .125-.045.16-.125a7.08 7.08 0 0 0 .322-.937c.034-.129-.016-.27-.112-.317l.089-.484c.016.007.027.008.037.008.089 0 .167-.085.183-.205.043-.337.066-.684.066-1.029l-.019-.548zm-4.16 4.368c-1.424 0-2.578-1.707-2.578-3.812s1.154-3.813 2.578-3.813 2.577 1.707 2.577 3.813-1.153 3.812-2.577 3.812z"/></svg>
